X:0819
T:Rayan's Rant,
C:Irish.
M:C
L:1/8
Q:1/2=100
I: :: :|
Z:Jack Campin * www.campin.me.uk * 2009
K:A Mixolydian
dfaf bgaf|dfaf ecAc|dfaf bgaf|bgaf ecAc:|
dfBf dfBf|dfBf ecAc|dfBf dfBf|bgaf ecAc:|
<end>
<start>
